X:1
T:Corde natus 2
T:André Vierendeels
T:(01/03/18)
T:Early melody
T:Corde natus 2
T:ad voces aequales
T:©
T:©
T:©
C:André Vierendeels
Z:©
%%score [ 1 2 3 ]
L:1/8
Q:1/4=120
M:2/2
K:G
V:1 treble-8 nm="Tenor 1" snm="T 1"
V:2 treble-8 nm="Tenor 2" snm="T 2"
V:3 bass nm="Bass" snm="B"
V:1
 B4 c4 | B4 A4 | d4 e4 | e4 !fermata!d4 | e4 f4 | g4 e4 | d4 e2 g2 | !fermata!g8 | g4 a2 a2 | %9
w: Cor- de|na- tus|ex Pa-|ren- tis|an- e|mun- di|ex- au- di-|um,|Al- pha et|
 g4 f4 | e4 d4 | e2 g2 !fermata!g4 | g4 g4 | g4 d4 | e4 c4 | !fermata!B8 | e4 d4 | c4 B4 | A4 ^G4 | %19
w: O co-|gno- mi-|na- * tur,|i- pse|fons et|clau- su-|la,|o- mni-|um quae|sunt, fu-|
 A2 c2 !fermata!c4 | c4 c4 | c4 c4 | B4 A4 | !fermata!B8 | c4 d4 | e4 c4 | d2 c2 A2 c2 | %27
w: e- * runt,|quae- que|post fu-|tu- ra|sunt,|quae- que|post fu-|tu- * * ra|
 !fermata!B8 |] %28
w: sunt.|
V:2
 F4 E4 | G4 E4 | G4 G4 | E4 !fermata!F4 | E4 A4 | B4 c4 | A4 A2 B2 | !fermata!c8 | B4 A2 =F2 | %9
w: Cor- de|na- tus|ex Pa-|ren- tis|an- te|mun- di|ex- au- di-|um,|Al- pha et|
 c4 A4 | B4 G4 | c2 G2 !fermata!E4 | c4 e4 | d4 A4 | G4 E4 | !fermata!^D8 | B4 B4 | G2 A2 G2 E2 | %18
w: O co-|gno- mi-|na- * tur,|i- pse|fons et|clau- su-|la,|o- mni-|um _ _ quae|
 B4 B4 | A4 !fermata!E4 | A2 =F2 G4 | A4 E4 | G4 E4 | !fermata!D8 | E4 G4 | A4 A4 | A2 G2 F2 A2 | %27
w: sunt, fu-|e- runt,|quae- * que|post fu-|tu- ra|sunt,|quae- que|post fu-|ru- * * ra|
 ^G8 |] %28
w: sunt.|
V:3
 B,,4 A,,4 | E,4 A,,4 | G,,4 C,4 | A,,4 !fermata!D,4 | A,,4 D,4 | G,4 C,4 | D,4 A,,2 G,,2 | %7
w: Cor- de|na- tus|ex Pa-|ren- tis|an- te|mun- di|ex- au- di-|
 !fermata!C,8 | G,,4 D,2 D,2 | C,4 D,4 | E,4 B,,4 | A,,B,,C,D, !fermata!C,4 | E,4 C,4 | B,,4 D,4 | %14
w: um,|Al- pha et|O co-|gno- mi-|na- * * * tur,|i- pse|fons et|
 E,4 A,,4 | !fermata!B,,8 | E,4 G,4 | C,2 A,,2 B,,4 | E,4 E,4 | E,4 !fermata!C,4 | E,2 D,2 C,4 | %21
w: clau- su-|la,|o- mni-|um _ quae|sunt, fu-|e- runt,|quae- * que|
 =F,4 C,4 | E,4 A,,4 | !fermata!G,,8 | C,4 B,,4 | A,,2 A,2 =F,4 | D,2 E,2 D,2 D,2 | E,8 |] %28
w: post fu-|tu- ra|sunt,|quae- que|post _ fu-|tu- * * ra|sunt.|

